icons/break-recurrence-16.svg

<svg id="icons" xmlns="http://www.w3.org/2000/svg" viewBox="0 0 16 16"><defs><style>.cls-1{fill:none;}</style></defs><path d="M11.15527,12H9.97937l1.60168,1.60205-.707.707L8.06543,11.5,10.874,8.69092l.707.707L9.97937,11h1.1759a2.98052,2.98052,0,0,0,2.12159-.87842,2.71258,2.71258,0,0,0,.27539-3.3457A1.23151,1.23151,0,0,0,13.457,6.646l.74079-.65137a2.16844,2.16844,0,0,1,.1748.23633,3.68139,3.68139,0,0,1-.40673,4.59765A3.93233,3.93233,0,0,1,11.15527,12ZM1.80211,10.00537,2.5249,9.354a1.23011,1.23011,0,0,1-.09521-.12988,2.71182,2.71182,0,0,1,.27539-3.3457A2.98019,2.98019,0,0,1,4.82617,5H5.98828L4.40039,6.58789l.707.707L7.9165,4.48584,5.10742,1.67676l-.707.707L6.0166,4H4.82617A3.89093,3.89093,0,0,0,2.03405,5.17139,3.68061,3.68061,0,0,0,1.62731,9.769,2.16974,2.16974,0,0,0,1.80211,10.00537Zm12.445-8.98144L1.00732,14.23975l.70606.708L14.95312,1.73193Z"/><rect class="cls-1" width="16" height="16"/></svg>

<svg xmlns="http://www.w3.org/2000/svg" viewBox="0 0 16 16"><path d="M11.155 12H9.98l1.602 1.602-.707.707-2.81-2.809 2.809-2.81.707.708L9.979 11h1.176a2.98 2.98 0 0 0 2.122-.878 2.713 2.713 0 0 0 .275-3.346 1.232 1.232 0 0 0-.095-.13l.74-.651a2.168 2.168 0 0 1 .176.236 3.681 3.681 0 0 1-.407 4.598A3.932 3.932 0 0 1 11.156 12zm-9.353-1.995l.723-.651a1.23 1.23 0 0 1-.095-.13 2.712 2.712 0 0 1 .275-3.346A2.98 2.98 0 0 1 4.826 5h1.162L4.4 6.588l.707.707 2.81-2.81-2.81-2.808-.707.707L6.017 4h-1.19a3.89 3.89 0 0 0-2.793 1.171 3.68 3.68 0 0 0-.407 4.598 2.17 2.17 0 0 0 .175.236zm12.445-8.981L1.007 14.24l.706.708 13.24-13.216z"/><path fill="none" d="M0 0h16v16H0z"/></svg>
